flaticon/dialogue/envelope.svg

<svg xmlns="http://www.w3.org/2000/svg" width="32" height="32" viewBox="0 0 24 24">
    <path d="M 23.4375 7.421875 L 23.375 7.421875 L 21.972656 2.179688 L 2.417969 7.421875 L 0 7.421875 L 0 21.820312 L 24 21.820312 L 24 7.421875 Z M 23.199219 13.296875 L 21.886719 11.332031 L 23.199219 9.214844 Z M 21.664062 4.113281 L 22.546875 7.421875 L 20.65625 7.421875 Z M 21.089844 3.246094 L 19.816406 7.421875 L 5.507812 7.421875 Z M 2.152344 8.21875 L 22.875 8.21875 L 19.402344 13.820312 L 4.597656 13.820312 L 1.125 8.21875 Z M 0.800781 9.214844 L 2.125 11.355469 L 0.800781 13.34375 Z M 0.800781 21.019531 L 0.800781 14.785156 L 2.589844 12.101562 L 4.152344 14.621094 L 19.847656 14.621094 L 21.425781 12.078125 L 23.199219 14.742188 L 23.199219 21.019531 Z M 0.800781 21.019531"/>
</svg>

<svg xmlns="http://www.w3.org/2000/svg" width="32" height="32" viewBox="0 0 24 24">
    <path d="M23.438 7.422h-.063L21.973 2.18 2.418 7.422H0V21.82h24V7.422zm-.239 5.875l-1.312-1.965 1.312-2.117zm-1.535-9.184l.883 3.309h-1.89zm-.574-.867l-1.274 4.176H5.508zM2.152 8.22h20.723l-3.473 5.601H4.598L1.125 8.22zm-1.351.996l1.324 2.14-1.324 1.989zm0 11.805v-6.235l1.789-2.683 1.562 2.52h15.696l1.578-2.544 1.773 2.664v6.278zm0 0"/>
</svg>
